usr/share/icons/biglinux-icons-material/24/devices/network-rj45-female.svg

<svg width="24" height="24" version="1.1" xmlns="http://www.w3.org/2000/svg">
 <style id="current-color-scheme" type="text/css">.ColorScheme-Text {
            color:#363636;
        }</style>
 <path class="ColorScheme-Text" d="m5 5c-1.108 0-2 0.892-2 2v10c0 1.108 0.892 2 2 2h14c1.108 0 2-0.892 2-2v-10c0-1.108-0.892-2-2-2zm-1 2 1-1v2h1v-2h1v2h1v-2h1v2h1v-2h4v2h1v-2h1v2h1v-2h1v2h1v-2l1 1v8h-3v1h-2v2h-6v-2h-2v-1h-3z" fill="currentColor"/>
</svg>

<svg xmlns="http://www.w3.org/2000/svg" width="24" height="24"><path fill="currentColor" d="M5 5c-1.108 0-2 .892-2 2v10c0 1.108.892 2 2 2h14c1.108 0 2-.892 2-2V7c0-1.108-.892-2-2-2zM4 7l1-1v2h1V6h1v2h1V6h1v2h1V6h4v2h1V6h1v2h1V6h1v2h1V6l1 1v8h-3v1h-2v2H9v-2H7v-1H4z" style="color:#dedede"/></svg>
